X:19015
T:Step and Fetch Her
R:March
C:Trad. Morris
O:England; Bampton
Z:Paul Hardy's Session Tunebook 2022 (see www.paulhardy.net). Creative Commons cc by-nc-sa licenced.
M:4/4
L:1/8
Q:1/4=130
K:G
A|"G"B2B2 "D7"cBcA|"G"G2g2 "C"egfe|"G"d2Bd "D7"cBcA|"G"G2 "D7"B2 "G"G3:|
B|"D"A3 c "G"B2d2|"D"A3 c "G"B2d2|"D"A3 c "G"B2d2|"D"dcBA "G"B2 G2|"D"A2Ac "G"B2d2|"D"A2Ac "G"B2d2|"D"A2Ac "G"B2d2|"D"dcBA "G"G3||
A|"G"B2Bc d2cB|"D7"A2AB c2A2|"G"B2Bc d2g2|"D"dcBA "G"G3 A|"G"B2Bc d2cB|"D7"A2AB c2A2|"G"B2Bc d2g2|"D7"fdef "G"g3||

